X: 41449
T: Two Little Ducks
R: reel
M: 4/4
K: Dmajor
|:AF|D2 D/D/D ADFD|EG~G2 BAGB|Ac c/B/A BAcA|ABce fdAF|
D2 D/D/D ADFD|BG~G2 BcdB|Acec fcec|Addc d2:|
|:Ac|d2fd cdec|BdcA BAFA|G2BG FGAF|E3F GAFE|
D2 D/D/D ADFD|BG~G2 BcdB|Acec fcec|Addc d2:|
|:A/B/c|d2fd gdfd|c2ec fcec|B/=c/c ec =fcec|A^ceA ceAc|
d2fd gdfd|c/c/c ec fcec|B/=c/c ec =fcec|Add^c d2:|

